assets/index-nav/summer-icon-btn.svg

<svg width="134" height="134" viewBox="0 0 134 134" fill="none" xmlns="http://www.w3.org/2000/svg">
<path d="M67.0002 98.2559C84.2623 98.2559 98.256 84.2622 98.256 67.0001C98.256 49.738 84.2623 35.7443 67.0002 35.7443C49.7381 35.7443 35.7444 49.738 35.7444 67.0001C35.7444 84.2622 49.7381 98.2559 67.0002 98.2559Z" stroke="#025F38" stroke-opacity="0.25" stroke-width="6" stroke-linecap="round" stroke-linejoin="round"/>
<path d="M67 3V20.8605" stroke="#025F38" stroke-opacity="0.25" stroke-width="6" stroke-linecap="round" stroke-linejoin="round"/>
<path d="M111.651 20.8604L99.7443 34.2558" stroke="#025F38" stroke-opacity="0.25" stroke-width="6" stroke-linecap="round" stroke-linejoin="round"/>
<path d="M131 67H113.14" stroke="#025F38" stroke-opacity="0.25" stroke-width="6" stroke-linecap="round" stroke-linejoin="round"/>
<path d="M111.651 111.651L99.7443 99.7441" stroke="#025F38" stroke-opacity="0.25" stroke-width="6" stroke-linecap="round" stroke-linejoin="round"/>
<path d="M67 131V113.14" stroke="#025F38" stroke-opacity="0.25" stroke-width="6" stroke-linecap="round" stroke-linejoin="round"/>
<path d="M20.8604 111.651L34.2557 99.7441" stroke="#025F38" stroke-opacity="0.25" stroke-width="6" stroke-linecap="round" stroke-linejoin="round"/>
<path d="M3 67H20.8605" stroke="#025F38" stroke-opacity="0.25" stroke-width="6" stroke-linecap="round" stroke-linejoin="round"/>
<path d="M20.8604 20.8604L34.2557 34.2558" stroke="#025F38" stroke-opacity="0.25" stroke-width="6" stroke-linecap="round" stroke-linejoin="round"/>
<path d="M47.6512 20.8604L49.1396 25.3255" stroke="#025F38" stroke-opacity="0.25" stroke-width="6" stroke-linecap="round" stroke-linejoin="round"/>
<path d="M14.9067 46.1628L25.3253 49.1395" stroke="#025F38" stroke-opacity="0.25" stroke-width="6" stroke-linecap="round" stroke-linejoin="round"/>
<path d="M19.3723 86.3488L25.3258 84.8604" stroke="#025F38" stroke-opacity="0.25" stroke-width="6" stroke-linecap="round" stroke-linejoin="round"/>
<path d="M47.6512 114.628L49.1396 108.674" stroke="#025F38" stroke-opacity="0.25" stroke-width="6" stroke-linecap="round" stroke-linejoin="round"/>
<path d="M86.3488 113.14L84.8605 108.674" stroke="#025F38" stroke-opacity="0.25" stroke-width="6" stroke-linecap="round" stroke-linejoin="round"/>
<path d="M117.605 87.8372L108.674 84.8604" stroke="#025F38" stroke-opacity="0.25" stroke-width="6" stroke-linecap="round" stroke-linejoin="round"/>
<path d="M117.605 46.1628L108.674 49.1395" stroke="#025F38" stroke-opacity="0.25" stroke-width="6" stroke-linecap="round" stroke-linejoin="round"/>
<path d="M86.3488 20.8604L84.8605 25.3255" stroke="#025F38" stroke-opacity="0.25" stroke-width="6" stroke-linecap="round" stroke-linejoin="round"/>
</svg>

<?xml version="1.0" encoding="utf-8"?>
<!-- Generator: Adobe Illustrator 27.4.0, SVG Export Plug-In . SVG Version: 6.00 Build 0)  -->
<svg version="1.1" id="Layer_1" xmlns="http://www.w3.org/2000/svg" xmlns:xlink="http://www.w3.org/1999/xlink" x="0px" y="0px"
	 viewBox="0 0 134 134" style="enable-background:new 0 0 134 134;" xml:space="preserve">
<style type="text/css">
	.st0{fill:none;stroke:#025F38;stroke-width:6;stroke-linecap:round;stroke-linejoin:round;stroke-opacity:0.25;}
</style>
<path class="st0" d="M67,98.3c17.3,0,31.3-14,31.3-31.3S84.3,35.7,67,35.7S35.7,49.7,35.7,67S49.7,98.3,67,98.3z"/>
<path class="st0" d="M67,3v17.9"/>
<path class="st0" d="M111.7,20.9L99.7,34.3"/>
<path class="st0" d="M111.7,111.7L99.7,99.7"/>
<path class="st0" d="M67,131v-17.9"/>
<path class="st0" d="M20.9,111.7l13.4-11.9"/>
<path class="st0" d="M3,67h17.9"/>
<path class="st0" d="M20.9,20.9l13.4,13.4"/>
<path class="st0" d="M47.7,20.9l1.5,4.5"/>
<path class="st0" d="M14.9,46.2l10.4,3"/>
<path class="st0" d="M19.4,86.3l6-1.5"/>
<path class="st0" d="M47.7,114.6l1.5-6"/>
<path class="st0" d="M86.3,113.1l-1.5-4.5"/>
<path class="st0" d="M117.6,87.8l-8.9-3"/>
<path class="st0" d="M117.6,46.2l-8.9,3"/>
<path class="st0" d="M86.3,20.9l-1.5,4.5"/>
</svg>
